src/actions/16/edit-table-insert-row-below.svg

<svg xmlns="http://www.w3.org/2000/svg" viewBox="0 0 16 16">
    <path d="M2 2v7h1V7h3v2h1V7h2v2h1V7h3v2h1V2H2zm1 1h3v3H3V3zm4 0h2v3H7V3zm3 0h3v3h-3V3zm0 7 2 4 2-4h-4z" style="fill:currentColor;fill-opacity:1;stroke:none;color:#050505;opacity:.7"/>
    <path d="M2 9v1h1.281L2 11.281v1.438L4.719 10h2.563l-3 3H2.001v1h7v-1.719L8.282 13H5.719l3-3H9V9H3Z" style="fill:currentColor;fill-opacity:1;stroke:none;color:#a0b6cb"/>
</svg>

<svg xmlns="http://www.w3.org/2000/svg" viewBox="0 0 16 16">
  <defs id="defs3051">
    <style type="text/css" id="current-color-scheme">
      .ColorScheme-Text {
        color:#363636;
      }
      .ColorScheme-Highlight {
        color:#3daee9;
      }
      </style>
  </defs>
  <path 
        style="fill:currentColor;fill-opacity:1;stroke:none"
        d="M 2 2 L 2 3 L 2 9 L 3 9 L 3 7 L 6 7 L 6 9 L 7 9 L 7 7 L 9 7 L 9 9 L 10 9 L 10 7 L 13 7 L 13 9 L 14 9 L 14 2 L 2 2 z M 3 3 L 6 3 L 6 6 L 3 6 L 3 3 z M 7 3 L 9 3 L 9 6 L 7 6 L 7 3 z M 10 3 L 13 3 L 13 6 L 10 6 L 10 3 z M 10 10 L 12 14 L 14 10 L 10 10 z "
        class="ColorScheme-Text"
        />
  <path 
        style="fill:currentColor;fill-opacity:1;stroke:none"
        d="M 2,9 2,10 3.281,10 2,11.281 2,12.719 4.719,10 l 2.563,0 -3,3 -2.281,0 0,1 7,0 0,-1.719 L 8.282,13 5.719,13 8.719,10 9,10 9,9 3,9 Z"
        class="ColorScheme-Highlight"
        />
</svg>
